assets/img/braze_icons/cloud-raining-02.svg

<svg fill="none" height="24" viewBox="0 0 24 24" width="24" xmlns="http://www.w3.org/2000/svg"><path d="m5.24923 6.14303c.81397-2.96487 3.52717-5.14303 6.75077-5.14303s5.9368 2.17816 6.7508 5.14303c2.4353.56658 4.2492 2.74947 4.2492 5.35697 0 3.0376-2.4624 5.5-5.5 5.5h-.5v3c0 .5523-.4477 1-1 1s-1-.4477-1-1v-3h-2v5c0 .5523-.4477 1-1 1s-1-.4477-1-1v-5h-2v3c0 .5523-.44772 1-1 1s-1-.4477-1-1v-3h-.5c-3.03757 0-5.5-2.4624-5.5-5.5 0-2.6075 1.8139-4.79039 4.24923-5.35697z" fill="#801ed7"/></svg>

<svg width="24" height="24" viewBox="0 0 24 24" fill="none" xmlns="http://www.w3.org/2000/svg">
<path d="M5.24923 6.14303C6.0632 3.17816 8.7764 1 12 1C15.2236 1 17.9368 3.17816 18.7508 6.14303C21.1861 6.70961 23 8.8925 23 11.5C23 14.5376 20.5376 17 17.5 17H17V20C17 20.5523 16.5523 21 16 21C15.4477 21 15 20.5523 15 20V17H13V22C13 22.5523 12.5523 23 12 23C11.4477 23 11 22.5523 11 22V17H9V20C9 20.5523 8.55228 21 8 21C7.44772 21 7 20.5523 7 20V17H6.5C3.46243 17 1 14.5376 1 11.5C1 8.8925 2.8139 6.70961 5.24923 6.14303Z" fill="#801ED7"/>
</svg>
